X:5932
T:Seeing' to his sheep
O:england
M:4/4
L:1/8
C:Mark Kenneth, Scotland
R:Reel
H:Written 1994, named 1997 after an ill fated phone call when it was
H:announced of a prominent Scottish businessman, 'Oh, He's not in the noo
H:- he's up the glen seeing to his sheep'
K:EMin
|:B,D|"Emin"E2 EF EDB,D|EDEF G2 FE|"D"D2 DE DB,A,B,|AGFE D2 B,D|"C"E2 EF
EDB,D|EDEF G2 FE|"Bmin"DdFd AGFA|"Emin"G2E2E2:|
|:"Emin"EeeE BBEB|GEBA G2 FE|"D"DddE ddFd|FEFG "Bmin"A2 GF|"Emin"EeeE BB
EB|GEBA "A7"G2 FE|"D"DEFG "Bmin"AGFA|"Emin"G2E2E4:|


